X: 502
T: Bırak Duyguları
C: Ömer Sami Güpgüp
O: Turkey
F: http://compmusic.upf.edu/node/140
N: huzzam--sarki--duyek--birak_duygulari--omer_sami_gupgup
N: makam= huzzam
N: form= sarki
N: usul= duyek = 8/4
M: 8/4
L: 1/16
K: C _1/4B _3/4e ^3/4f 
Q: 1/4=138
%%MIDI tuningsystem comma53
c2 d6 d2 d_2/4e dc cB  | B8 dc cB B4  | \
w:  Bı rak  duy *  *  gu *  la  |  rı  SAZ  | 
B2 c2 d4 d2 c2 c4  | 
w:  ge zi nip   | 
d2 _2/4e2 f4 f2 e2 d4  | f2 g2 _7/8b2 a2 g2 ^f2 f2 _7/8e2  | \
w:  ge zi nip   |  ge zi nip   | 
g4 f2 _2/4ed d8  | (3B2c2d2 c4 (3d2_2/4e2f2 e4  | 
w:  *  dur *  *  sun    |  SAZ  | 
d2 _2/4ef e2 d2 dc B^A B4  | c2 d6 d2 d_2/4e dc cB  | \
w:   |  Bı rak  duy *  *  gu *  la  | 
B8 dc cB B4  | 
w:  rı  SAZ  | 
B2 c2 d4 d2 c2 c4  | d2 _2/4e2 f4 f2 e2 d4  | \
w:  ge zi nip   |  ge zi nip   | 
f2 g2 _7/8b2 a2 g2 ^f2 f2 _7/8e2  | \
w:  ge zi nip   | 
g4 f2 _2/4ed d8  | 
w:  *  dur *  *  sun    | 
(3B2c2d2 c4 (3d2_2/4e2f2 e4  | fg a2 g2 f2 f_2/4e ed d4  | \
w:  SAZ  |   | 
z2 f4 f2 a2 g2 g2 f_2/4e  | 
w:  Gön lü mün   | 
_2/4e2 f2 e2 f2 (3fed e2 (3fed e2  | \
w:  i çin *  *  de  *  *  *  SAZ  | 
z2 _7/8b4 a2 g4 f4  | z2 g4 f2 _2/4e4 d4  | 
w:  her  za man   |  her  za man   | 
z2 d4 _2/4e2 d2 e2 d2 e2  | d2 c2 d3c B8  | \
w:  her  za man   |  *  *  var *  sın    | 
(3B2c2d2 c4 (3d2_2/4e2f2 e4  | fg a2 g2 f2 f_2/4e ed d4  | 
w:  SAZ  |   | 
z2 f4 f2 a2 g2 g2 f_2/4e  | _2/4e2 f2 e2 f2 (3fed e2 (3fed e2  | \
w:  Gön lü mün   |  i çin *  *  de  *  *  *  SAZ  | 
z2 _7/8b4 a2 g4 f4  | 
w:  her  za man   | 
z2 g4 f2 _2/4e4 d4  | z2 d4 _2/4e2 d2 e2 d2 e2  | \
w:  her  za man   |  her  za man   | 
d2 c2 d3c B8  | (3B2c2d2 c4 (3d2_2/4e2f2 e4  | 
w:  *  *  var *  sın    |  SAZ  | 
f2 g2 ^a2 b2 c'2 ba b4  | g2 b6 c'c' b^a b4  | \
w:   |  Yü re ğin   | 
a2 g4 _7/8b2 ag ^f^e f4  | 
w:  *  ken *  di *  *  *  ne   | 
^f2 f6 g2 f2 _2/4e2 d2  | g2 g6 a2 g2 f2 g2  | \
w:  so ru lar   |  so ru lar   | 
b4 c'2 c'2 c'2 d'2 c'2 b2  | a2 g2 f2 _2/4ed d8  | 
w:  *  so ru lar   |  *  *  sor *  *  sun    | 
(3B2c2d2 c4 (3d2_2/4e2f2 e4  | fg a2 g2 f2 f_2/4e ed d4  | \
w:  SAZ  |   | 
z2 f4 f2 a2 g2 g2 f_2/4e  | 
w:  Gön lü mün   | 
_2/4e2 f2 e2 f2 (3fed e2 (3fed e2  | \
w:  i çin *  *  de  *  *  *  SAZ  | 
z2 _7/8b4 a2 g4 f4  | z2 g4 f2 _2/4e4 d4  | 
w:  her  za man   |  her  za man   | 
z2 d4 _2/4e2 d2 e2 d2 e2  | d2 c2 d3c B8  | |


